feathernotes/data/icons/edit-table-delete-column.svg

<svg version="1.1" xmlns="http://www.w3.org/2000/svg" viewBox="0 0 16 16">
<defs id="defs1">
<style type="text/css" id="current-color-scheme">
.ColorScheme-Text {
color:#000;
}
</style>
</defs>
<path style="fill:currentColor;fill-opacity:1;stroke:none" id="path4" d="m 5,2 v 12 h 6 V 2 Z M 6,3 H 7.2792969 L 6,4.2792969 Z M 8.7167969,3 H 10 v 1.28125 l -4,4 V 5.71875 Z M 10,5.71875 v 2.5625 l -4,4 v -2.5625 z m 0,4 V 13 H 6.71875 Z" class="ColorScheme-Text"/>
</svg>

<svg version="1.1" xmlns="http://www.w3.org/2000/svg" viewBox="0 0 16 16">
<defs id="defs1">
<style type="text/css" id="current-color-scheme">
.ColorScheme-Text {
color:#000;
}
</style>
</defs>
<path style="fill:currentColor;fill-opacity:1;stroke:none" id="path4" d="m 2,2 v 12 h 12 v -12 h -11 -1 z  m 1,1 h 2 v 3 h -2 v -3 z  m 3,0 h 1.2793 l -1.2793,1.2793 v -1.2793 z  m 2.7168,0 h 1.2832 v 1.28125 l -4,4 v -2.5625 l 2.7168,-2.7188 z  m 2.2832,0 h 2 v 3 h -2 v -3 z  m -1,2.7188 v 2.5625 l -4,4 v -2.5625 l 4,-4 z  m -7,1.2812 h 2 v 2 h -2 v -2 z  m 8,0 h 2 v 2 h -2 v -2 z  m -1,2.7188 v 3.28125 h -3.28125 l 3.2812,-3.2812 z  m -7,.2812 h 2 v 3 h -2 v -3 z  m 8,0 h 2 v 3 h -2 v -3 z " class="ColorScheme-Text"/>
</svg>
